assets/text-t/text-t-fill.svg

<svg id="Raw" xmlns="http://www.w3.org/2000/svg" viewBox="0 0 256 256">
  <rect width="256" height="256" fill="none"/>
  <path d="M207.99414,47.99512h-160a8.00008,8.00008,0,0,0-8,8v32a8,8,0,0,0,16,0v-24h64v128h-24a8,8,0,0,0,0,16h64a8,8,0,0,0,0-16h-24v-128h64v24a8,8,0,1,0,16,0v-32A8.00008,8.00008,0,0,0,207.99414,47.99512Z"/>
</svg>

<svg xmlns="http://www.w3.org/2000/svg" viewBox="0 0 256 256"><rect width="256" height="256" fill="none"/><path d="M208,48H48a8,8,0,0,0-8,8V88a8,8,0,0,0,16,0V64h64V192H96a8,8,0,0,0,0,16h64a8,8,0,0,0,0-16H136V64h64V88a8,8,0,0,0,16,0V56A8,8,0,0,0,208,48Z"/></svg>
